misc/icons/Mountain/24x24/apps/avogadro-icon.svg

<svg xmlns="http://www.w3.org/2000/svg" width="24" height="24" version="1.1">
 <path style="opacity:0.2" d="M 10.247891,2.5035624 C 9.8669739,2.5296923 9.8027857,2.7101795 9.5906801,3.2418407 L 2.2715179,21.587471 C 1.8869474,22.472675 1.791601,22.47321 2.7929898,22.47321 h 2.5868531 c 0.997001,0.07712 1.0585438,0.03601 1.3876619,-0.78906 l 1.4765271,-3.184296 h 3.7557701 3.755771 L 17.2321,21.68415 c 0.329118,0.825075 0.390661,0.866182 1.387662,0.78906 h 2.586853 c 1.001389,0 0.906043,-5.5e-4 0.521472,-0.885739 L 14.408925,3.2418407 C 14.196819,2.7101795 14.132631,2.5296923 13.751714,2.5035624 13.624742,2.4948524 13.46229,2.5025974 13.24782,2.5211403 h -1.248018 -1.248017 c -0.21447,-0.018544 -0.376922,-0.026288 -0.503894,-0.017578 z m 1.751911,6.0634524 2.164012,5.9328552 H 11.999802 9.8357916 Z"/>
 <path style="fill:#4f4f4f" d="M 10.247891,2.003565 C 9.8669739,2.0296949 9.8027857,2.2101821 9.5906801,2.7418433 L 2.2715179,21.087473 c -0.3845705,0.885204 -0.4799169,0.885739 0.5214719,0.885739 h 2.5868531 c 0.997001,0.07712 1.0585438,0.03601 1.3876619,-0.78906 l 1.4765271,-3.184296 h 3.7557701 3.755771 l 1.476527,3.184296 c 0.329118,0.825075 0.390661,0.866182 1.387662,0.78906 h 2.586853 c 1.001389,0 0.906043,-5.5e-4 0.521472,-0.885739 L 14.408925,2.7418433 C 14.196819,2.2101821 14.132631,2.0296949 13.751714,2.003565 13.624742,1.994855 13.46229,2.0026 13.24782,2.0211429 h -1.248018 -1.248017 c -0.21447,-0.018544 -0.376922,-0.026288 -0.503894,-0.017578 z m 1.751911,6.0634524 2.164012,5.9328546 H 11.999802 9.8357916 Z"/>
 <ellipse style="fill:none;stroke:#ff631b;stroke-width:1.89055288;stroke-linecap:round;stroke-linejoin:round" cx="-6.388" cy="15.917" rx="11.445" ry="2.66" transform="matrix(-0.87665683,0.48111621,0.40210261,0.91559461,0,0)"/>
 <ellipse style="fill:none;stroke:#ff631b;stroke-width:1.89055288;stroke-linecap:round;stroke-linejoin:round" cx="15.672" cy="4.325" rx="11.445" ry="2.66" transform="matrix(0.87665683,0.48111621,-0.40210261,0.91559461,0,0)"/>
 <path style="fill:#4f4f4f" d="m 6.988301,9.2647016 -1.393549,3.4921734 9.305627,5.243404 h 0.855465 l 0.320156,0.547849 5.598766,2.405003 -2.334951,-5.852515 -5.590799,-2.641591 0.415038,1.54127 H 12 9.8359461 l 0.9687459,-2.932866 z"/>
 <path style="opacity:0.2" d="m 20.767543,6.4561188 c -0.495841,-0.0099 -1.286708,0.1109686 -2.241202,0.3749985 -1.251631,0.3462231 -2.796109,0.9329713 -4.475568,1.7138606 0.163214,0.092424 0.324118,0.1852318 0.484373,0.2783189 1.490992,-0.6700673 2.861042,-1.1795613 3.991195,-1.4921815 0.954494,-0.2640299 1.745361,-0.3849035 2.241202,-0.3749985 0.03047,6e-4 0.04526,0.005 0.07031,0.00683 0.0301,-0.041685 0.06974,-0.088959 0.0957,-0.127929 0.103592,-0.1554764 0.131731,-0.2380761 0.169921,-0.3281237 -0.08708,-0.021305 -0.162458,-0.04733 -0.335936,-0.050781 z m 2.218741,0.064453 c -0.01419,0.1059321 -0.03649,0.2079217 -0.06348,0.3056628 -0.108301,0.3921619 -0.293747,0.7402266 -0.525389,1.0878862 -0.463282,0.6953192 -1.132877,1.3999144 -1.984367,2.1542882 -0.522993,0.463344 -1.135205,0.944423 -1.787102,1.430659 0.112208,0.0837 0.225332,0.167742 0.333983,0.250975 0.52283,-0.400641 1.019638,-0.797595 1.453119,-1.181636 0.85149,-0.7543738 1.521085,-1.458969 1.984367,-2.1542882 0.231642,-0.3476596 0.417088,-0.6957243 0.525389,-1.0878862 0.06828,-0.2472605 0.0946,-0.5270399 0.06348,-0.8056608 z M 12.000976,9.5645049 c -0.22773,0.120221 -0.455553,0.239012 -0.685544,0.365233 -2.718525,1.4919481 -5.0622556,3.1169541 -6.6034889,4.4824041 -0.7706154,0.682725 -1.3395018,1.308319 -1.6357356,1.752922 -0.1035726,0.155447 -0.1317294,0.239054 -0.1699212,0.329101 0.071582,0.01749 0.1481169,0.0344 0.2646474,0.04297 0.3134357,-0.433838 0.8377812,-1.00197 1.5410094,-1.624993 1.5412333,-1.36545 3.8849639,-2.990456 6.6034889,-4.482404 0.390061,-0.214068 0.776272,-0.417611 1.159176,-0.6142556 -0.15873,-0.08606 -0.316033,-0.1678054 -0.473632,-0.2509765 z M 1.0244579,16.984397 c -0.0419984,0.318159 -0.01953,0.664006 0.1181635,0.977535 0.1843243,0.41971 0.5341361,0.691884 0.8779262,0.835934 0.3437897,0.144051 0.702113,0.193427 1.0898394,0.201172 l 0.2021477,-0.506834 c -0.066484,0.0011 -0.1375274,0.0081 -0.2021477,0.0068 C 2.7226611,18.491295 2.3643373,18.441919 2.0205476,18.297868 1.6767575,18.153818 1.3269458,17.881644 1.1426214,17.461934 1.0751287,17.308253 1.0428468,17.146425 1.0244579,16.984397 Z m 7.2245805,0.515623 -0.11914,0.29785 c 0.2460395,-0.09405 0.496686,-0.19367 0.7509735,-0.29785 z"/>
 <path style="fill:#4f4f4f" d="m 17.011699,9.2647016 1.393549,3.4921734 -9.305627,5.243404 H 8.2441554 L 7.924,18.548128 2.3252341,20.953131 4.6601853,15.100616 10.250983,12.459025 9.8359461,14.000295 H 12 14.164054 l -0.968746,-2.932866 z"/>
 <path style="fill:#ff631b" d="m 15.375963,9.3135294 -1.889641,1.0664026 c 1.697652,0.973969 3.224229,1.985401 4.462873,2.932605 l 1.514642,-1.169917 c -1.15193,-0.923064 -2.534643,-1.885222 -4.087874,-2.8290906 z"/>
 <path style="fill:#ff631b" d="M 8.6240369,9.3135294 10.513678,10.379932 C 8.8160257,11.353901 7.2894493,12.365333 6.0508047,13.312537 L 4.5361628,12.14262 C 5.6880932,11.219556 7.0708061,10.257398 8.6240369,9.3135294 Z"/>
 <path style="opacity:0.2" d="m 3.2373397,6.4561188 c -0.1734778,0.00345 -0.248854,0.029475 -0.3359362,0.050781 0.038187,0.090048 0.066329,0.1726473 0.1699212,0.3281237 0.025966,0.03897 0.065603,0.086245 0.095703,0.127929 0.025053,-0.00185 0.039835,-0.00622 0.070312,-0.00683 0.495841,-0.00991 1.2867071,0.1109686 2.2412018,0.3749985 1.9089899,0.5280599 4.4923835,1.6066721 7.2109085,3.098621 2.718525,1.491948 5.062256,3.116954 6.60349,4.482404 0.703228,0.623023 1.227573,1.191155 1.541009,1.624993 0.116531,-0.0086 0.193066,-0.02548 0.264648,-0.04297 -0.03819,-0.09005 -0.06635,-0.173654 -0.169922,-0.329101 C 20.632441,15.720461 20.063555,15.094867 19.29294,14.412142 17.751706,13.046692 15.407975,11.421686 12.68945,9.9297379 9.970925,8.4377894 7.3875314,7.3591772 5.4785415,6.8311173 4.5240467,6.5670874 3.7331807,6.4462138 3.2373397,6.4561188 Z M 1.0185985,6.520572 c -0.0311203,0.2786209 -0.00481,0.5584003 0.063476,0.8056608 0.1083008,0.3921619 0.293747,0.7402266 0.5253886,1.0878862 0.4632829,0.6953192 1.1328777,1.3999144 1.9843671,2.154288 0.4334809,0.384041 0.9302886,0.780995 1.4531192,1.181636 C 5.1536008,11.66681 5.2667239,11.58277 5.3789324,11.499068 4.7270351,11.012832 4.1148235,10.531753 3.5918305,10.068409 2.7403411,9.3140354 2.0707463,8.6094402 1.6074634,7.914121 1.3758217,7.5664614 1.1903756,7.2183967 1.0820748,6.8262348 1.0550823,6.7284937 1.032787,6.6265041 1.0185985,6.520572 Z M 22.980425,16.984397 c -0.01839,0.162028 -0.05067,0.323856 -0.118164,0.477537 -0.184324,0.41971 -0.534136,0.691884 -0.877926,0.835934 -0.34379,0.144051 -0.702114,0.193427 -1.08984,0.201172 -0.06462,0.0013 -0.135663,-0.0057 -0.202147,-0.0068 l 0.202147,0.506834 c 0.387727,-0.0077 0.74605,-0.05712 1.08984,-0.201172 0.34379,-0.14405 0.693602,-0.416224 0.877926,-0.835934 0.137693,-0.313529 0.160162,-0.659376 0.118164,-0.977535 z"/>
 <circle style="opacity:0.2" cx="20" cy="9.5" r="2"/>
 <circle style="fill:#ffc500" cx="20" cy="9" r="2"/>
 <circle style="opacity:0.2" cx="5.5" cy="6" r="2.5"/>
 <circle style="fill:#ffc500" cx="5.5" cy="5.5" r="2.5"/>
 <path style="opacity:0.2;fill:#ffffff" d="m 19.999968,7.0000621 a 1.999992,1.999992 0 0 0 -1.999992,1.999992 1.999992,1.999992 0 0 0 0.01758,0.2470695 1.999992,1.999992 0 0 1 1.982412,-1.7470635 1.999992,1.999992 0 0 1 1.982414,1.7529225 1.999992,1.999992 0 0 0 0.01758,-0.2529285 1.999992,1.999992 0 0 0 -1.999992,-1.999992 z"/>
 <path style="opacity:0.2;fill:#ffffff" d="M 5.5 3 A 2.49999 2.49999 0 0 0 3 5.5 A 2.49999 2.49999 0 0 0 3.0136719 5.7382812 A 2.49999 2.49999 0 0 1 5.5 3.5 A 2.49999 2.49999 0 0 1 7.9863281 5.7617188 A 2.49999 2.49999 0 0 0 8 5.5 A 2.49999 2.49999 0 0 0 5.5 3 z"/>
</svg>

<svg xmlns="http://www.w3.org/2000/svg" width="24" height="24" version="1.1">
 <path style="opacity:0.2" d="M 10.248,2.5 C 9.8661,2.5 9.8028,2.7102 9.5907,3.2418 L 2.2715,21.587 C 1.8869,22.473 1.7916,22.5 2.793,22.5 H 5.3798 C 6.3775,22.5 6.4384,22.509 6.7675,21.684 L 8.244,18.5 H 15.756 L 17.232,21.684 C 17.561,22.509 17.623,22.5 18.62,22.5 H 21.207 C 22.208,22.5 22.113,22.473 21.728,21.587 L 14.409,3.2418 C 14.197,2.7102 14.134,2.5 13.752,2.5 Z M 12,8.567 14.164,14.5 H 9.8358 Z"/>
 <path style="fill:#4f4f4f" d="M 10.248,2 C 9.8661,2 9.8028,2.2102 9.5907,2.7418 L 2.2715,21.087 C 1.8869,21.973 1.7916,22 2.793,22 H 5.3798 C 6.3775,22 6.4384,22.009 6.7675,21.184 L 8.244,18 H 15.756 L 17.232,21.184 C 17.561,22.009 17.623,22 18.62,22 H 21.207 C 22.208,22 22.113,21.973 21.728,21.087 L 14.409,2.7418 C 14.197,2.2102 14.134,2 13.752,2 Z M 12,8.067 14.164,14 H 9.8358 Z"/>
 <ellipse style="fill:none;stroke:#ff631b;stroke-width:1.89055;stroke-linecap:round;stroke-linejoin:round" cx="-6.388" cy="15.917" rx="11.445" ry="2.66" transform="matrix(-0.87666,0.48112,0.4021,0.91559,0,0)"/>
 <ellipse style="fill:none;stroke:#ff631b;stroke-width:1.89055;stroke-linecap:round;stroke-linejoin:round" cx="15.672" cy="4.325" rx="11.445" ry="2.66" transform="matrix(0.87666,0.48112,-0.4021,0.91559,0,0)"/>
 <path style="fill:#4f4f4f" d="M 6.9883,9.2647 5.5948,12.757 14.9,18 H 15.756 L 16.076,18.548 21.675,20.953 19.34,15.101 13.749,12.459 14.164,14 H 12 9.8359 L 10.805,11.067 Z"/>
 <path style="opacity:0.2" d="M 20.768,6.4561 C 20.272,6.4462 19.481,6.5671 18.526,6.8311 17.275,7.1773 15.73,7.7641 14.051,8.545 14.214,8.6374 14.375,8.7302 14.535,8.8233 16.026,8.1532 17.396,7.6437 18.526,7.3311 19.481,7.0671 20.272,6.9462 20.768,6.9561 20.798,6.9567 20.813,6.9611 20.838,6.9629 20.868,6.9213 20.908,6.874 20.934,6.835 21.037,6.6795 21.065,6.5969 21.103,6.5069 21.016,6.4856 20.941,6.4596 20.768,6.4561 Z M 22.986,6.5206 C 22.972,6.6265 22.95,6.7285 22.923,6.8262 22.815,7.2184 22.629,7.5665 22.397,7.9141 21.934,8.6094 21.265,9.314 20.413,10.068 19.89,10.532 19.278,11.013 18.626,11.499 18.738,11.583 18.851,11.667 18.96,11.75 19.483,11.349 19.98,10.952 20.413,10.568 21.265,9.814 21.934,9.1094 22.397,8.4141 22.629,8.0665 22.815,7.7184 22.923,7.3262 22.991,7.079 23.017,6.7992 22.986,6.5206 Z M 12.001,9.5645 C 11.773,9.6847 11.545,9.8035 11.315,9.9297 8.5969,11.422 6.2532,13.047 4.7119,14.412 3.9413,15.095 3.3724,15.72 3.0762,16.165 2.9726,16.321 2.9445,16.404 2.9063,16.494 2.9779,16.512 3.0544,16.529 3.1709,16.537 3.4844,16.103 4.0087,15.535 4.7119,14.912 6.2532,13.547 8.5969,11.922 11.315,10.43 11.705,10.216 12.092,10.012 12.475,9.8155 12.316,9.7294 12.159,9.6477 12.001,9.5645 Z M 1.0245,16.984 C 0.98243,17.303 1.0049,17.648 1.1426,17.962 1.3269,18.382 1.6768,18.654 2.0205,18.798 2.3643,18.942 2.7227,18.991 3.1104,18.999 L 3.3125,18.492 C 3.2461,18.493 3.175,18.5 3.1104,18.499 2.7227,18.491 2.3643,18.442 2.0205,18.298 1.6768,18.154 1.3269,17.882 1.1426,17.462 1.0751,17.308 1.0428,17.146 1.0245,16.984 Z M 8.249,17.5 8.1299,17.798 C 8.3759,17.704 8.6266,17.604 8.8809,17.5 Z"/>
 <path style="fill:#4f4f4f" d="M 17.012,9.2647 18.405,12.757 9.0996,18 H 8.2442 L 7.924,18.548 2.3252,20.953 4.6602,15.101 10.251,12.459 9.8359,14 H 12 14.164 L 13.195,11.067 Z"/>
 <path style="fill:#ff631b" d="M 15.376,9.3135 13.486,10.38 C 15.184,11.354 16.711,12.365 17.949,13.313 L 19.464,12.143 C 18.312,11.22 16.929,10.257 15.376,9.3135 Z"/>
 <path style="fill:#ff631b" d="M 8.624,9.3135 10.514,10.38 C 8.816,11.354 7.2894,12.365 6.0508,13.313 L 4.5362,12.143 C 5.6881,11.22 7.0708,10.257 8.624,9.3135 Z"/>
 <path style="opacity:0.2" d="M 3.2373,6.4561 C 3.0639,6.4596 2.9885,6.4856 2.9014,6.5069 2.9396,6.5969 2.9677,6.6795 3.0713,6.835 3.0973,6.874 3.1369,6.9213 3.167,6.963 3.1921,6.9611 3.2069,6.9567 3.2373,6.9561 3.7332,6.9462 4.524,7.0671 5.4785,7.3311 7.3875,7.8592 9.9709,8.9378 12.689,10.43 15.408,11.922 17.752,13.547 19.293,14.912 19.996,15.535 20.521,16.103 20.834,16.537 20.95,16.529 21.027,16.512 21.099,16.494 21.06,16.404 21.032,16.321 20.929,16.165 20.632,15.72 20.064,15.095 19.293,14.412 17.752,13.047 15.408,11.422 12.689,9.9297 9.9709,8.4378 7.3875,7.3592 5.4785,6.8311 4.524,6.5671 3.7332,6.4462 3.2373,6.4561 Z M 1.0186,6.5206 C 0.98745,6.7992 1.0138,7.079 1.0821,7.3262 1.1904,7.7184 1.3758,8.0665 1.6075,8.4141 2.0707,9.1094 2.7403,9.814 3.5918,10.568 4.0253,10.952 4.5221,11.349 5.0449,11.75 5.1536,11.667 5.2667,11.583 5.3789,11.499 4.727,11.013 4.1148,10.532 3.5918,10.068 2.7403,9.314 2.0707,8.6094 1.6075,7.9141 1.3758,7.5665 1.1904,7.2184 1.0821,6.8262 1.0551,6.7285 1.0328,6.6265 1.0186,6.5206 Z M 22.98,16.984 C 22.962,17.146 22.93,17.308 22.862,17.462 22.678,17.882 22.328,18.154 21.984,18.298 21.641,18.442 21.282,18.491 20.894,18.499 20.83,18.5 20.759,18.493 20.692,18.492 L 20.894,18.999 C 21.282,18.991 21.641,18.942 21.984,18.798 22.328,18.654 22.678,18.382 22.862,17.962 23,17.648 23.022,17.303 22.98,16.984 Z"/>
 <circle style="opacity:0.2" cx="20" cy="9.5" r="2"/>
 <circle style="fill:#ffc500" cx="20" cy="9" r="2"/>
 <circle style="opacity:0.2" cx="5.5" cy="6" r="2.5"/>
 <circle style="fill:#ffc500" cx="5.5" cy="5.5" r="2.5"/>
 <path style="opacity:0.2;fill:#ffffff" d="M 20,7.0001 A 2,2 0 0 0 18,9.0001 2,2 0 0 0 18.018,9.2471 2,2 0 0 1 20,7.5001 2,2 0 0 1 21.982,9.253 2,2 0 0 0 22,9.0001 2,2 0 0 0 20,7.0001 Z"/>
 <path style="opacity:0.2;fill:#ffffff" d="M 5.5,3 A 2.5,2.5 0 0 0 3,5.5 2.5,2.5 0 0 0 3.0137,5.7383 2.5,2.5 0 0 1 5.5,3.5 2.5,2.5 0 0 1 7.9863,5.7617 2.5,2.5 0 0 0 8,5.5 2.5,2.5 0 0 0 5.5,3 Z"/>
</svg>
